src/assets/svg/icons/fa/nuevos/classic/thin/face-grimace classic thin.svg

<svg xmlns="http://www.w3.org/2000/svg" viewBox="0 0 512 512"><path d="M344 288C374.9 288 400 313.1 400 344C400 374.9 374.9 400 344 400H168C137.1 400 112 374.9 112 344C112 313.1 137.1 288 168 288H344zM168 304C145.9 304 128 321.9 128 344C128 366.1 145.9 384 168 384H176V304H168zM192 384H248V304H192V384zM320 304H264V384H320V304zM336 384H344C366.1 384 384 366.1 384 344C384 321.9 366.1 304 344 304H336V384zM192.4 208C192.4 216.8 185.2 224 176.4 224C167.5 224 160.4 216.8 160.4 208C160.4 199.2 167.5 192 176.4 192C185.2 192 192.4 199.2 192.4 208zM320.4 208C320.4 199.2 327.5 192 336.4 192C345.2 192 352.4 199.2 352.4 208C352.4 216.8 345.2 224 336.4 224C327.5 224 320.4 216.8 320.4 208zM0 256C0 114.6 114.6 0 256 0C397.4 0 512 114.6 512 256C512 397.4 397.4 512 256 512C114.6 512 0 397.4 0 256zM256 16C123.5 16 16 123.5 16 256C16 388.5 123.5 496 256 496C388.5 496 496 388.5 496 256C496 123.5 388.5 16 256 16z"/></svg>

<svg xmlns="http://www.w3.org/2000/svg" viewBox="0 0 512 512"><!--! Font Awesome Pro 6.4.0 by @fontawesome - https://fontawesome.com License - https://fontawesome.com/license (Commercial License) Copyright 2023 Fonticons, Inc. --><path d="M256 16a240 240 0 1 0 0 480 240 240 0 1 0 0-480zM512 256A256 256 0 1 1 0 256a256 256 0 1 1 512 0zM168 304c-22.1 0-40 17.9-40 40s17.9 40 40 40h8V304h-8zm24 80h56V304H192v80zm128 0V304H264v80h56zm16 0h8c22.1 0 40-17.9 40-40s-17.9-40-40-40h-8v80zM168 288H344c30.9 0 56 25.1 56 56s-25.1 56-56 56H168c-30.9 0-56-25.1-56-56s25.1-56 56-56zm-7.6-80a16 16 0 1 1 32 0 16 16 0 1 1 -32 0zm176-16a16 16 0 1 1 0 32 16 16 0 1 1 0-32z"/></svg>
